content/images/sdbeams/beamprobs/P-2-3-0006-prob.svg

<?xml version="1.0" standalone="yes"?>
<!DOCTYPE svg PUBLIC "-//W3C//DTD SVG 1.1//EN" 
  "http://www.w3.org/Graphics/SVG/1.1/DTD/svg11.dtd">
<svg xmlns="http://www.w3.org/2000/svg"
     xmlns:xlink="http://www.w3.org/1999/xlink"
     version="1.1"
     width="8.5in" 
     height="11.0in" 
     viewBox="0 0 612 792">
  <defs>
    <style type="text/css"><![CDATA[
    .elem {
	stroke-width: 2.0;
	stroke: black;
	}
    path.dim {
       stroke-width: 0.5;
       stroke: black;
       }
    path.guides {
       stroke-width: 0.5;
       stroke: grey;
       }
    text.dwglabel {
       font-family: Verdana, Arial;
       font-size: 10px;
       font-weight: bold;
       fill: black;
       text-align: center;
       text-anchor: start;
       }
    text.dim {
       font-family: Verdana, Arial;
       font-size: 8px;
       font-weight: bold;
       fill: black;
       text-align: center;
       text-anchor: middle;
       }
    text.guides {
       font-family: Verdana, Arial;
       font-size: 8px;
       font-weight: normal;
       font-style: italic;
       fill: black;
       text-align: center;
       text-anchor: middle;
       }
    text.vmlabel {
       font-family: Verdana, Arial;
       font-size: 8px;
       font-style: italic;
       fill: black;
       }
    text.notes {
       font-family: Verdana, Arial;
       font-size: 9px;
       font-weight: normal;
       font-style: italic;
       fill: black;
       text-align: center;
       text-anchor: left;
       }
    text.ptlabel {
       font-family: Verdana, Arial;
       font-size: 7px;
       font-style: italic;
       fill: black;
       text-align: center;
       text-anchor: start;
       }
     path.cload {
       fill: none;
       stroke-width: 1;
       stroke: black; 
       marker-end: url(#CLArrowEnd);
     }
      path.mload {
       fill: none;
       stroke-width: 1;
       stroke: black; 
       marker-end: url(#MLArrowEnd);
     }
      path.mloadInkscape {
       fill: none;
       stroke-width: 1;
       stroke: black; 
       marker-end: url(#MLArrowStart);
     }
     polygon.dload {
       fill: rgb(240,240,240);
       opacity: 0.5; /* if < 1, REALLY slows down printing of the pdfs */
       stroke-width: 1;
       stroke: black; 
     }
     path.dload {
       fill: none;
       stroke-width: 1;
       stroke: black; 
       marker-end: url(#DLArrowEnd);
     }
     path.dloadna {
       fill: none;
       stroke-width: 1;
       stroke: black; 
     }
     path.vdiag {
       fill: url(#crosshatch45);
       stroke-width: 1;
       stroke: black; 
     }
     path.mdiag {
       fill: url(#crosshatch45);
       stroke-width: 1;
       stroke: black; 
     }

    ]]></style>
    <g id="PinnedSupport" transform="translate(0,1.0)">
      <path d="M 0 0 l 4 6 l -8 0 z" 
	    stroke="black" stroke-width="0" fill="black" opacity="1.0" />
      <path d="M -6 6 l 12 0" 
	    stroke="black" stroke-width="1" fill="none" />
      <path d="M 6 6 l -3 3 m 0 -3 l -3 3 m 0 -3 l -3 3 m 0 -3 l -3 3 m 0 -3 l -3 3"
	    stroke="black" stroke-width="1" fill="none" />
    </g>
    <g id="RollerSupport" transform="translate(0,1.0)">
      <circle cx="0" cy="3" r="3"
	    stroke="black" stroke-width="0" fill="black" opacity="1.0" />
      <path d="M -6 6 l 12 0" 
	    stroke="black" stroke-width="1" fill="none" />
      <path d="M 6 6 l -3 3 m 0 -3 l -3 3 m 0 -3 l -3 3 m 0 -3 l -3 3 m 0 -3 l -3 3"
	    stroke="black" stroke-width="1" fill="none" />
    </g>
    <g id="LFixedSupport" transform="translate(-0.5,0)">
      <path d="M 0 -6 l 0 12"
	    stroke="black" stroke-width="1" fill="none" />
      <path d="M 0 -6 l -3 3 m 3 0 l -3 3 m 3 0 l -3 3 m 3 0 l -3 3 m 3 0 l -3 3"
	    stroke="black" stroke-width="1" fill="none" />
    </g>
    <g id="RFixedSupport">
      <use xlink:href="#LFixedSupport" transform="scale(-1,1)"/>
    </g>
    <g id="Hinge">
      <circle cx="0" cy="0" r="2.5"
	      stroke="black" stroke-width="1" fill="white"/>
    </g>
    <g id="ShearRelease">
      <rect x="-3" y="-6" width="6" height="12"
	    stroke="none" fill="white"/>
      <circle cx="0" cy="-6" r="2" stroke="black" strokewidth="0.5" fill="white"/>
      <circle cx="0" cy="0" r="2" stroke="black" strokewidth="0.5" fill="white"/>
      <circle cx="0" cy="6" r="2" stroke="black" strokewidth="0.5" fill="white"/>
      <path d="M -3 -9 l 0 18 M 3 -9 l 0 18" stroke="black" stroke-width="1"/>
    </g>
    <marker id="DLArrowStart"
	    markerUnits="userSpaceOnUse"
	    markerWidth="8"
	    markerHeight="4"
	    orient="auto"
	    viewBox="0 0 8 4"
	    refX="0"
	    refY="2">
      <path d="M 0 2 l 8 -2 l 0 4 z"/>
    </marker>
    <marker id="DLArrowEnd"
	    markerUnits="userSpaceOnUse"
	    markerWidth="8"
	    markerHeight="4"
	    orient="auto"
	    viewBox="0 0 8 4"
	    refX="8"
	    refY="2">
      <path d="M 0 0 l 8 2 l -8 2 z"/>
    </marker>
    <marker id="CLArrowStart"
	    markerUnits="userSpaceOnUse"
	    markerWidth="10.0"
	    markerHeight="6"
	    orient="auto"
	    viewBox="0 0 10 6"
	    refX="3.0"
	    refY="3">
      <path d="M 0 3 l 10 -3 l -2 3 l 2 3 z"/>
    </marker>
    <marker id="CLArrowEnd"
	    markerUnits="userSpaceOnUse"
	    markerWidth="10.0"
	    markerHeight="6"
	    orient="auto"
	    viewBox="0 0 10 6"
	    refX="7.0"
	    refY="3">
      <path d="M 0 0 l 10 3 l -10 3 l 2 -3 z"/>
    </marker>
    <marker id="MLArrowStart"
	    markerUnits="userSpaceOnUse"
	    markerWidth="10.0"
	    markerHeight="6"
	    orient="auto"
	    viewBox="0 0 10 6"
	    refX="8"
	    refY="3">
      <path d="M 10 0 l -10 3 l 10 3 l -2 -3 z"/>
    </marker>
    <marker id="MLArrowEnd"
	    markerUnits="userSpaceOnUse"
	    markerWidth="10.0"
	    markerHeight="6"
	    orient="auto"
	    viewBox="0 0 10 6"
	    refX="2"
	    refY="3">
      <path d="M 0 0 l 10 3 l -10 3 l 2 -3 z"/>
    </marker>
    <pattern id="crosshatch45" patternUnits="userSpaceOnUse"
             x="0" y="0" width="10" height="10"
	     viewBox="0 0 10 10">
       <path d="M 0 0 L 10 10" fill="none" stroke="grey" stroke-width="0.2"/>
    </pattern>


  </defs>

<g transform="translate(72.0,122.0)">
  <title>Beam! Length = 14.2</title>
  <path class="elem" d="M 0 0 l 360.0 0"/>
  <g transform="translate(30.4,0.0)">
    <title>UD Load 23 kN/m</title>
    <polygon points="0,0 0,-12.0 88.7,-12.0 88.7,0" class="dload"/>
    <path class="dload" d="M 0.0 -12.0 L 0.0 -1.0"/>
    <path class="dload" d="M 22.2 -12.0 L 22.2 -1.0"/>
    <path class="dload" d="M 44.4 -12.0 L 44.4 -1.0"/>
    <path class="dload" d="M 66.5 -12.0 L 66.5 -1.0"/>
    <path class="dload" d="M 88.7 -12.0 L 88.7 -1.0"/>
    <text style="text-anchor: middle;" dx="0.0" dy="-2.0" y="-12.0" x="44.4" class="dim">23</text>
  </g>
  <g transform="translate(0.0,-1.0)">
    <title>Point Load = 85 kN</title>
    <path class="cload" d="M 0 -26.0 l 0 23.0"/>
    <text y="-26.0" x="0" class="dim" dy="-3.0">85</text>
  </g>
  <g transform="translate(299.2,-1.0)">
    <title>Point Load = 85 kN</title>
    <path class="cload" d="M 0 -26.0 l 0 23.0"/>
    <text y="-26.0" x="0" class="dim" dy="-3.0">85</text>
  </g>
  <use y="0" x="30.4" xlink:href="#RollerSupport"/>
  <use y="0" x="119.2" xlink:href="#Hinge"/>
  <use y="0" x="360.0" xlink:href="#RFixedSupport"/>
  <path class="dim" d="M 299.2 10.0 l 0 25.0"/>
  <path class="dim" d="M 119.2 30.0 l 180.0 0"/>
  <path class="dim" d="M 119.2 30.0 m -3.0 3.0 l 6.0 -6.0"/>
  <path class="dim" d="M 299.2 30.0 m -3.0 3.0 l 6.0 -6.0"/>
  <text y="30.0" x="209.2" class="dim" dy="-3.0">7.1</text>
  <path class="dim" d="M 119.2 10.0 l 0 40.0"/>
  <path class="dim" d="M 30.4 45.0 l 88.7 0"/>
  <path class="dim" d="M 30.4 45.0 m -3.0 3.0 l 6.0 -6.0"/>
  <path class="dim" d="M 119.2 45.0 m -3.0 3.0 l 6.0 -6.0"/>
  <text y="45.0" x="74.8" class="dim" dy="-3.0">3.5</text>
  <path class="dim" d="M 0.0 10.0 l 0 55.0"/>
  <path class="dim" d="M 30.4 10.0 l 0 55.0"/>
  <path class="dim" d="M 0.0 60.0 l 30.4 0"/>
  <path class="dim" d="M 0.0 60.0 m -3.0 3.0 l 6.0 -6.0"/>
  <path class="dim" d="M 30.4 60.0 m -3.0 3.0 l 6.0 -6.0"/>
  <text y="60.0" x="15.2" class="dim" dy="-3.0">1.2</text>
  <path class="dim" d="M 360.0 10.0 l 0 55.0"/>
  <path class="dim" d="M 30.4 60.0 l 329.6 0"/>
  <path class="dim" d="M 360.0 60.0 m -3.0 3.0 l 6.0 -6.0"/>
  <text y="60.0" x="195.2" class="dim" dy="-3.0">13</text>
  <text y="17.0" x="0.0" class="ptlabel" dx="1.0">a</text>
  <text y="17.0" x="30.4" class="ptlabel" dx="1.0">b</text>
  <text y="17.0" x="119.2" class="ptlabel" dx="1.0">c</text>
  <text y="17.0" x="299.2" class="ptlabel" dx="1.0">d</text>
  <text y="17.0" x="360.0" class="ptlabel" dx="1.0">e</text>
  <text y="-56.0" x="0" xml:space="preserve" class="notes">Units are m, kN;       Difficulty Level = 5</text>
  <g id="beam-fb-diagram" visibility="hidden" transform="translate(0.0,144.0)">
  </g>
</g>

</svg>

<?xml version="1.0" encoding="UTF-8" standalone="no"?>
<svg
   xmlns:dc="http://purl.org/dc/elements/1.1/"
   xmlns:cc="http://creativecommons.org/ns#"
   xmlns:rdf="http://www.w3.org/1999/02/22-rdf-syntax-ns#"
   xmlns:svg="http://www.w3.org/2000/svg"
   xmlns="http://www.w3.org/2000/svg"
   xmlns:xlink="http://www.w3.org/1999/xlink"
   id="svg162"
   viewBox="0 0 399.0451 156.68183"
   height="2.1761365in"
   width="5.5422931in"
   version="1.1">
  <metadata
     id="metadata166">
    <rdf:RDF>
      <cc:Work
         rdf:about="">
        <dc:format>image/svg+xml</dc:format>
        <dc:type
           rdf:resource="http://purl.org/dc/dcmitype/StillImage" />
      </cc:Work>
    </rdf:RDF>
  </metadata>
  <defs
     id="defs61">
    <style
       id="style2"
       type="text/css"><![CDATA[
    .elem {
	stroke-width: 2.0;
	stroke: black;
	}
    path.dim {
       stroke-width: 0.5;
       stroke: black;
       }
    path.guides {
       stroke-width: 0.5;
       stroke: grey;
       }
    text.dwglabel {
       font-family: Verdana, Arial;
       font-size: 10px;
       font-weight: bold;
       fill: black;
       text-align: center;
       text-anchor: start;
       }
    text.dim {
       font-family: Verdana, Arial;
       font-size: 8px;
       font-weight: bold;
       fill: black;
       text-align: center;
       text-anchor: middle;
       }
    text.guides {
       font-family: Verdana, Arial;
       font-size: 8px;
       font-weight: normal;
       font-style: italic;
       fill: black;
       text-align: center;
       text-anchor: middle;
       }
    text.vmlabel {
       font-family: Verdana, Arial;
       font-size: 8px;
       font-style: italic;
       fill: black;
       }
    text.notes {
       font-family: Verdana, Arial;
       font-size: 9px;
       font-weight: normal;
       font-style: italic;
       fill: black;
       text-align: center;
       text-anchor: left;
       }
    text.ptlabel {
       font-family: Verdana, Arial;
       font-size: 7px;
       font-style: italic;
       fill: black;
       text-align: center;
       text-anchor: start;
       }
     path.cload {
       fill: none;
       stroke-width: 1;
       stroke: black; 
       marker-end: url(#CLArrowEnd);
     }
      path.mload {
       fill: none;
       stroke-width: 1;
       stroke: black; 
       marker-end: url(#MLArrowEnd);
     }
      path.mloadInkscape {
       fill: none;
       stroke-width: 1;
       stroke: black; 
       marker-end: url(#MLArrowStart);
     }
     polygon.dload {
       fill: rgb(240,240,240);
       opacity: 0.5; /* if < 1, REALLY slows down printing of the pdfs */
       stroke-width: 1;
       stroke: black; 
     }
     path.dload {
       fill: none;
       stroke-width: 1;
       stroke: black; 
       marker-end: url(#DLArrowEnd);
     }
     path.dloadna {
       fill: none;
       stroke-width: 1;
       stroke: black; 
     }
     path.vdiag {
       fill: url(#crosshatch45);
       stroke-width: 1;
       stroke: black; 
     }
     path.mdiag {
       fill: url(#crosshatch45);
       stroke-width: 1;
       stroke: black; 
     }

    ]]></style>
    <g
       transform="translate(0,1)"
       id="PinnedSupport">
      <path
         style="opacity:1;fill:#000000;stroke:#000000;stroke-width:0"
         id="path4"
         d="M 0,0 4,6 H -4 Z" />
      <path
         style="fill:none;stroke:#000000;stroke-width:1"
         id="path6"
         d="M -6,6 H 6" />
      <path
         style="fill:none;stroke:#000000;stroke-width:1"
         id="path8"
         d="M 6,6 3,9 M 3,6 0,9 M 0,6 -3,9 m 0,-3 -3,3 m 0,-3 -3,3" />
    </g>
    <g
       transform="translate(0,1)"
       id="RollerSupport">
      <circle
         style="opacity:1;fill:#000000;stroke:#000000;stroke-width:0"
         id="circle11"
         r="3"
         cy="3"
         cx="0" />
      <path
         style="fill:none;stroke:#000000;stroke-width:1"
         id="path13"
         d="M -6,6 H 6" />
      <path
         style="fill:none;stroke:#000000;stroke-width:1"
         id="path15"
         d="M 6,6 3,9 M 3,6 0,9 M 0,6 -3,9 m 0,-3 -3,3 m 0,-3 -3,3" />
    </g>
    <g
       transform="translate(-0.5)"
       id="LFixedSupport">
      <path
         style="fill:none;stroke:#000000;stroke-width:1"
         id="path18"
         d="M 0,-6 V 6" />
      <path
         style="fill:none;stroke:#000000;stroke-width:1"
         id="path20"
         d="m 0,-6 -3,3 m 3,0 -3,3 m 3,0 -3,3 m 3,0 -3,3 m 3,0 -3,3" />
    </g>
    <g
       id="RFixedSupport">
      <use
         height="100%"
         width="100%"
         y="0"
         x="0"
         id="use23"
         transform="scale(-1,1)"
         xlink:href="#LFixedSupport" />
    </g>
    <g
       id="Hinge">
      <circle
         style="fill:#ffffff;stroke:#000000;stroke-width:1"
         id="circle26"
         r="2.5"
         cy="0"
         cx="0" />
    </g>
    <g
       id="ShearRelease">
      <rect
         style="fill:#ffffff;stroke:none"
         id="rect29"
         height="12"
         width="6"
         y="-6"
         x="-3" />
      <circle
         style="fill:#ffffff;stroke:#000000"
         id="circle31"
         strokewidth="0.5"
         r="2"
         cy="-6"
         cx="0" />
      <circle
         style="fill:#ffffff;stroke:#000000"
         id="circle33"
         strokewidth="0.5"
         r="2"
         cy="0"
         cx="0" />
      <circle
         style="fill:#ffffff;stroke:#000000"
         id="circle35"
         strokewidth="0.5"
         r="2"
         cy="6"
         cx="0" />
      <path
         style="stroke:#000000;stroke-width:1"
         id="path37"
         d="M -3,-9 V 9 M 3,-9 V 9" />
    </g>
    <marker
       refY="2"
       refX="0"
       viewBox="0 0 8 4"
       orient="auto"
       markerHeight="4"
       markerWidth="8"
       markerUnits="userSpaceOnUse"
       id="DLArrowStart">
      <path
         id="path40"
         d="M 0,2 8,0 v 4 z" />
    </marker>
    <marker
       refY="2"
       refX="8"
       viewBox="0 0 8 4"
       orient="auto"
       markerHeight="4"
       markerWidth="8"
       markerUnits="userSpaceOnUse"
       id="DLArrowEnd">
      <path
         id="path43"
         d="M 0,0 8,2 0,4 Z" />
    </marker>
    <marker
       refY="3"
       refX="3"
       viewBox="0 0 10 6"
       orient="auto"
       markerHeight="6"
       markerWidth="10"
       markerUnits="userSpaceOnUse"
       id="CLArrowStart">
      <path
         id="path46"
         d="M 0,3 10,0 8,3 10,6 Z" />
    </marker>
    <marker
       refY="3"
       refX="7"
       viewBox="0 0 10 6"
       orient="auto"
       markerHeight="6"
       markerWidth="10"
       markerUnits="userSpaceOnUse"
       id="CLArrowEnd">
      <path
         id="path49"
         d="M 0,0 10,3 0,6 2,3 Z" />
    </marker>
    <marker
       refY="3"
       refX="8"
       viewBox="0 0 10 6"
       orient="auto"
       markerHeight="6"
       markerWidth="10"
       markerUnits="userSpaceOnUse"
       id="MLArrowStart">
      <path
         id="path52"
         d="M 10,0 0,3 10,6 8,3 Z" />
    </marker>
    <marker
       refY="3"
       refX="2"
       viewBox="0 0 10 6"
       orient="auto"
       markerHeight="6"
       markerWidth="10"
       markerUnits="userSpaceOnUse"
       id="MLArrowEnd">
      <path
         id="path55"
         d="M 0,0 10,3 0,6 2,3 Z" />
    </marker>
    <pattern
       viewBox="0 0 10 10"
       height="10"
       width="10"
       y="0"
       x="0"
       patternUnits="userSpaceOnUse"
       id="crosshatch45">
      <path
         id="path58"
         stroke-width="0.2"
         stroke="grey"
         fill="none"
         d="M 0 0 L 10 10" />
    </pattern>
  </defs>
  <g
     id="g160"
     transform="translate(19.700781,77.281836)">
    <title
       id="title63">Beam! Length = 14.2</title>
    <path
       style="stroke:#000000;stroke-width:2"
       id="path65"
       d="M 0,0 H 360"
       class="elem" />
    <g
       id="g83"
       transform="translate(30.4)">
      <title
         id="title67">UD Load 23 kN/m</title>
      <polygon
         style="opacity:0.5;fill:#f0f0f0;stroke:#000000;stroke-width:1"
         id="polygon69"
         class="dload"
         points="88.7,-12 88.7,0 0,0 0,-12 " />
      <path
         style="fill:none;stroke:#000000;stroke-width:1;marker-end:url(#DLArrowEnd)"
         id="path71"
         d="M 0,-12 V -1"
         class="dload" />
      <path
         style="fill:none;stroke:#000000;stroke-width:1;marker-end:url(#DLArrowEnd)"
         id="path73"
         d="M 22.2,-12 V -1"
         class="dload" />
      <path
         style="fill:none;stroke:#000000;stroke-width:1;marker-end:url(#DLArrowEnd)"
         id="path75"
         d="M 44.4,-12 V -1"
         class="dload" />
      <path
         style="fill:none;stroke:#000000;stroke-width:1;marker-end:url(#DLArrowEnd)"
         id="path77"
         d="M 66.5,-12 V -1"
         class="dload" />
      <path
         style="fill:none;stroke:#000000;stroke-width:1;marker-end:url(#DLArrowEnd)"
         id="path79"
         d="M 88.7,-12 V -1"
         class="dload" />
      <text
         id="text81"
         class="dim"
         x="44.400002"
         y="-12"
         dy="-2"
         dx="0"
         style="font-weight:bold;font-size:8px;font-family:Verdana, Arial;text-align:center;text-anchor:middle;fill:#000000">23</text>
    </g>
    <g
       id="g91"
       transform="translate(0,-1)">
      <title
         id="title85">Point Load = 85 kN</title>
      <path
         style="fill:none;stroke:#000000;stroke-width:1;marker-end:url(#CLArrowEnd)"
         id="path87"
         d="M 0,-26 V -3"
         class="cload" />
      <text
         style="font-weight:bold;font-size:8px;font-family:Verdana, Arial;text-align:center;text-anchor:middle;fill:#000000"
         id="text89"
         dy="-3"
         class="dim"
         x="0"
         y="-26">85</text>
    </g>
    <g
       id="g99"
       transform="translate(299.2,-1)">
      <title
         id="title93">Point Load = 85 kN</title>
      <path
         style="fill:none;stroke:#000000;stroke-width:1;marker-end:url(#CLArrowEnd)"
         id="path95"
         d="M 0,-26 V -3"
         class="cload" />
      <text
         style="font-weight:bold;font-size:8px;font-family:Verdana, Arial;text-align:center;text-anchor:middle;fill:#000000"
         id="text97"
         dy="-3"
         class="dim"
         x="0"
         y="-26">85</text>
    </g>
    <use
       height="100%"
       width="100%"
       id="use101"
       xlink:href="#RollerSupport"
       x="30.4"
       y="0" />
    <use
       height="100%"
       width="100%"
       id="use103"
       xlink:href="#Hinge"
       x="119.2"
       y="0" />
    <use
       height="100%"
       width="100%"
       id="use105"
       xlink:href="#RFixedSupport"
       x="360"
       y="0" />
    <path
       style="stroke:#000000;stroke-width:0.5"
       id="path107"
       d="M 299.2,10 V 35"
       class="dim" />
    <path
       style="stroke:#000000;stroke-width:0.5"
       id="path109"
       d="m 119.2,30 h 180"
       class="dim" />
    <path
       style="stroke:#000000;stroke-width:0.5"
       id="path111"
       d="m 119.2,30 m -3,3 6,-6"
       class="dim" />
    <path
       style="stroke:#000000;stroke-width:0.5"
       id="path113"
       d="m 299.2,30 m -3,3 6,-6"
       class="dim" />
    <text
       style="font-weight:bold;font-size:8px;font-family:Verdana, Arial;text-align:center;text-anchor:middle;fill:#000000"
       id="text115"
       dy="-3"
       class="dim"
       x="209.2"
       y="30">7.1</text>
    <path
       style="stroke:#000000;stroke-width:0.5"
       id="path117"
       d="M 119.2,10 V 50"
       class="dim" />
    <path
       style="stroke:#000000;stroke-width:0.5"
       id="path119"
       d="m 30.4,45 h 88.7"
       class="dim" />
    <path
       style="stroke:#000000;stroke-width:0.5"
       id="path121"
       d="m 30.4,45 m -3,3 6,-6"
       class="dim" />
    <path
       style="stroke:#000000;stroke-width:0.5"
       id="path123"
       d="m 119.2,45 m -3,3 6,-6"
       class="dim" />
    <text
       style="font-weight:bold;font-size:8px;font-family:Verdana, Arial;text-align:center;text-anchor:middle;fill:#000000"
       id="text125"
       dy="-3"
       class="dim"
       x="74.800003"
       y="45">3.5</text>
    <path
       style="stroke:#000000;stroke-width:0.5"
       id="path127"
       d="M 0,10 V 65"
       class="dim" />
    <path
       style="stroke:#000000;stroke-width:0.5"
       id="path129"
       d="M 30.4,10 V 65"
       class="dim" />
    <path
       style="stroke:#000000;stroke-width:0.5"
       id="path131"
       d="M 0,60 H 30.4"
       class="dim" />
    <path
       style="stroke:#000000;stroke-width:0.5"
       id="path133"
       d="m 0,60 m -3,3 6,-6"
       class="dim" />
    <path
       style="stroke:#000000;stroke-width:0.5"
       id="path135"
       d="m 30.4,60 m -3,3 6,-6"
       class="dim" />
    <text
       style="font-weight:bold;font-size:8px;font-family:Verdana, Arial;text-align:center;text-anchor:middle;fill:#000000"
       id="text137"
       dy="-3"
       class="dim"
       x="15.2"
       y="60">1.2</text>
    <path
       style="stroke:#000000;stroke-width:0.5"
       id="path139"
       d="M 360,10 V 65"
       class="dim" />
    <path
       style="stroke:#000000;stroke-width:0.5"
       id="path141"
       d="M 30.4,60 H 360"
       class="dim" />
    <path
       style="stroke:#000000;stroke-width:0.5"
       id="path143"
       d="m 360,60 m -3,3 6,-6"
       class="dim" />
    <text
       style="font-weight:bold;font-size:8px;font-family:Verdana, Arial;text-align:center;text-anchor:middle;fill:#000000"
       id="text145"
       dy="-3"
       class="dim"
       x="195.2"
       y="60">13</text>
    <text
       style="font-style:italic;font-size:7px;font-family:Verdana, Arial;text-align:center;text-anchor:start;fill:#000000"
       id="text147"
       dx="1"
       class="ptlabel"
       x="0"
       y="17">a</text>
    <text
       style="font-style:italic;font-size:7px;font-family:Verdana, Arial;text-align:center;text-anchor:start;fill:#000000"
       id="text149"
       dx="1"
       class="ptlabel"
       x="30.4"
       y="17">b</text>
    <text
       style="font-style:italic;font-size:7px;font-family:Verdana, Arial;text-align:center;text-anchor:start;fill:#000000"
       id="text151"
       dx="1"
       class="ptlabel"
       x="119.2"
       y="17">c</text>
    <text
       style="font-style:italic;font-size:7px;font-family:Verdana, Arial;text-align:center;text-anchor:start;fill:#000000"
       id="text153"
       dx="1"
       class="ptlabel"
       x="299.20001"
       y="17">d</text>
    <text
       style="font-style:italic;font-size:7px;font-family:Verdana, Arial;text-align:center;text-anchor:start;fill:#000000"
       id="text155"
       dx="1"
       class="ptlabel"
       x="360"
       y="17">e</text>
    <text
       style="font-style:italic;font-weight:normal;font-size:9px;font-family:Verdana, Arial;text-align:center;fill:#000000"
       id="text157"
       class="notes"
       xml:space="preserve"
       x="0"
       y="-56">Units are m, kN;       Difficulty Level = 5</text>
    <g
       style="visibility:hidden"
       transform="translate(0,144)"
       visibility="hidden"
       id="beam-fb-diagram" />
  </g>
</svg>
